!!!!SEGMENT: pl-kc--40102-iii-1-saf--001-008_zielenski-mikolaj--offertoria-totius-anni-in-epiphania-domini-et-per-totam-octavam-reges-tharsis.krn
!!!cenid: 16xx:1531
!!!COM: Zieleński, Mikołaj
!!!COM-rismID: pe30013481
!!!CDT: <1611->1611
!!!CNT: Polish
!!!GTL: Offertoria totius anni
!!!OTL: In Epiphania Domini et per totam Octavam/Reges Tharsis
!!!OMV: 008
!!!PDT: 1611
!!!AGN:
!!!SMS-siglum: PL-Kc
!!!SMS-shelfmark: 40102 III/1 Saf.
!!!SMS-shelfwork: 001-008 G
!!!SMS-variant:
!!!SMS-altvar:
!!!NIFC-rismSourceID: 990069887
!!!NIFC-rismChildID: 990069887
!!!NIFC-islandoraID: none
!!!URL-pdf-islandora:
!!!URL-scan: https://cyfrowe.mnk.pl/dlibra/publication/24235/edition/23926/content?ref=desc @EN{Scan on The National Museum in Krakow Website} @PL{Skany w portalu Biblioteka Cyfrowa Muzeum Narodowego w Krakowie}
!!!ONB-nifc: UWAGA: str. 9-10. Uwaga: W xml metrum 2/1 do źródłowego C| i odpowiednio 3/1 do 3/2
!!!AIN: 4 organ
!!!key:
**kern	**kern	**kern	**kern
*group1	*group1	*group1	*group1
*part4	*part3	*part2	*part1
*staff4	*staff3	*staff2	*staff1
*I""Organo	*I""Organo	*I""Organo	*I""Organo
*I''org	*I''org	*I''org	*I''org
*Iorgan	*Iorgan	*Iorgan	*Iorgan
*ICklav	*ICklav	*ICklav	*ICklav
*clefF4	*clefC1	*clefF3	*clefG2
*k[b-]	*k[b-]	*k[b-]	*k[b-]
*F:	*F:	*F:	*F:
*M2/1	*M2/1	*M2/1	*M2/1
*met(c|)	*met(c|)	*met(c|)	*met(c|)
=1	=1	=1	=1
!	!	!LO:TX:t=P:problem=zdwojony znak przykluczowy	!
!	!	!LO:TX:a:t=Reges Tharſis.	!LO:TX:a:t=In Epiphania Domini, & pettotam oćtauam. A 8t
0r	1cc	00r	00r
.	2a\	.	.
.	2cc\	.	.
=2-	=2-	=2-	=2-
1r	2f/	.	.
.	2a\	.	.
1c	2g/	.	.
.	[y2b-\	.	.
=3	=3	=3	=3
!	!LO:N:xstem:cue	!	!
1F	4b-\]	00r	00r
.	4b-\	.	.
.	4a\	.	.
.	4g/	.	.
2D/	2.a\	.	.
2F\	.	.	.
.	4b-\	.	.
=4-	=4-	=4-	=4-
1.C	2cc\	.	.
.	1g	.	.
2AA/	2cc\	.	.
=5	=5	=5	=5
2BB-/	2b-\	00r	00r
2GG/	2b-\	.	.
2D/	1a	.	.
2.F\	.	.	.
=6-	=6-	=6-	=6-
.	2r	.	.
4E\	.	.	.
4D/	2.dd\	.	.
4C/	.	.	.
2BB-/	.	.	.
.	4cc\	.	.
2GG/	4b-\	.	.
.	4a\	.	.
=7	=7	=7	=7
2.C/	2g/	00r	0r
.	1cc	.	.
4BB-/	.	.	.
2AA/	.	.	.
4GG/	4b-\	.	.
4FF/	4a\	.	.
=8-	=8-	=8-	=8-
1.C	2g/	.	1r
.	2.f/	.	.
.	.	.	1cc
.	8e/	.	.
.	8d/	.	.
2C/	2e/	.	.
=9	=9	=9	=9
1FF	1f	0r	2a/
.	.	.	2cc\
1r	1r	.	2f/
.	.	.	2a/
=10-	=10-	=10-	=10-
0r	0r	1c	2g/
.	.	.	2cc\
.	.	1F	2cc\
.	.	.	[y2ff\
=11	=11	=11	=11
!	!	!	!LO:N:xstem:cue
00r	00r	2D/	4ff\]
.	.	.	8ee\
.	.	.	8dd\
.	.	2F/	4cc\
.	.	.	4dd\
.	.	2C/	2.ee\
.	.	2.c\	.
.	.	.	4ee\
=12-	=12-	=12-	=12-
.	.	.	2dd\
!	!	!LO:N:acc=#	!
.	.	8Bn\	.
.	.	8A\	.
.	.	2B\	2.gg\
.	.	2.c\	.
.	.	.	4ff\
.	.	.	2ee\
.	.	4c\	.
=13	=13	=13	=13
00r	00r	1G	2dd\
.	.	.	2.gg\
.	.	2.c\	.
.	.	.	4ff\
.	.	.	4ee\
.	.	4B-\	4dd\
=14-	=14-	=14-	=14-
.	.	2A\	4cc\
.	.	.	4a/
.	.	2D/	1dd
.	.	2.E/	.
.	.	.	[y2cc\
.	.	4F/	.
=15	=15	=15	=15
!	!	!	!LO:N:xstem:cue
1r	1r	2G\	4cc\]
!	!	!	!LO:N:acc=#
.	.	.	8bn/
.	.	.	8a/
.	.	2G\	2b/
2r	2r	1C	1cc
1C/	1cc\	.	.
=16-	=16-	=16-	=16-
.	.	0r	0r
2FF/	2cc\	.	.
2.BB-/	2.b-\	.	.
4BB-/	4b-\	.	.
=17	=17	=17	=17
2BB-/	2b-\	0r	0r
2C/	4a\	.	.
.	2a\	.	.
2D/	.	.	.
.	8g/	.	.
.	8f/	.	.
2E\	2g/	.	.
=18-	=18-	=18-	=18-
0F	0a	2r	2r
.	.	1F	1ff
.	.	2A\	2cc\
=19	=19	=19	=19
00r	00r	2.B-\	2.dd\
.	.	4B-\	4dd\
.	.	2B-\	2dd\
.	.	2c\	2ee\
=20-	=20-	=20-	=20-
.	.	1d	1ff
.	.	2.c\	2.ee\
.	.	[4F/	[y4ff\
=21	=21	=21	=21
!	!	!	!LO:N:xstem:cue
0r	0r	4F/]	8ff\]
.	.	.	8ff\
.	.	4C/	4ee\
.	.	1G	4.dd\
.	.	.	8cc\
.	.	.	4b-/
.	.	.	4g/
.	.	2C/	2.cc\
=22-	=22-	=22-	=22-
1r	1r	1G	.
!	!	!	!LO:N:acc=#
.	.	.	8bn/
.	.	.	8a/
.	.	.	2b/
2r	2r	1C	1cc
4r	4r	.	.
[4C/	[<4cc\	.	.
=23	=23	=23	=23
4C/]	8cc\]	00r	00r
.	8cc\	.	.
4GG/	4b-\	.	.
4.AA/	4.a\	.	.
8BB-/	16g/	.	.
.	16f/	.	.
2C/	4e/	.	.
.	4c/	.	.
2FF/	2.f/	.	.
=24-	=24-	=24-	=24-
1C	.	.	.
.	8e/	.	.
.	8d/	.	.
.	2e/	.	.
2.FF/	2f/	.	.
.	2a\	.	.
4F\	.	.	.
*custos:E	*custos:g	*custos:c	*custos:cc
!!LO:PB:g=original
=25	=25	=25	=25
4E\	4g/	0r	0r
4F\	4a\	.	.
4D/	4f/	.	.
4E\	4g/	.	.
2F\	1a	.	.
2FF/	.	.	.
=26-	=26-	=26-	=26-
1C	1g	2r	2r
.	.	2c\	2cc\
!	!	!LO:N:acc=#	!
1r	1r	4Bn\	4dd\
.	.	4c\	4cc\
.	.	4A\	4cc\
.	.	4B\	4dd\
=27	=27	=27	=27
0r	0r	1G	1b-
.	.	2.F/	2a/
.	.	.	2ff\
.	.	4F/	.
=28-	=28-	=28-	=28-
2r	2r	4c\	4ee\
.	.	4F/	4ff\
4r	4r	4c\	4ee\
4FF/	4a\	4F/	4ff\
4C/	4g/	2r	2r
4FF/	4a\	.	.
4C/	4g/	4r	4r
4FF/	4a\	4F/	4ff\
=29	=29	=29	=29
4r	4r	4c\	4ee\
4FF/	4cc\	4F/	4ff\
4C/	4cc\	4C/	4ee\
4FF/	4cc\	4F/	4ff\
4C/	4cc\	4r	4r
8FF/	8cc\	4F/	4ff\
8FF/	8cc\	.	.
4C/	4cc\	4C/	4ee\
4FF/	4cc\	4F/	4ff\
=30-	=30-	=30-	=30-
4C/	4cc\	4C/	4ee\yy
8FF/	8cc\	8F/	8ff\
8FF/	8cc\	8F/	8ff\
4C/	4cc\	4C/	4ee\
4GG/	4b-\	4D/	4gg\
2D/	2a\	2D/	2ff\
2BB-/	2dd\	2F/	2ff\
=31	=31	=31	=31
2F\	1cc	1F	1ff
2FF/	.	.	.
1C	1cc	1C	2ee\
.	.	.	1gg\
=32-	=32-	=32-	=32-
1GG	2r	1r	.
.	1dd	.	2.dd\
2D/	.	1F	.
.	.	.	2ff\
2F\	2cc\	.	.
.	.	.	[<4cc\
=33	=33	=33	=33
2C/	2cc\	2G\	4cc\]
.	.	.	2ee-X\
2E-X\	1b-	2G\	.
.	.	.	4b-/
2BB-/	.	2F/	2r
2.BB-/	1dd\	1D/	1ff\
=34-	=34-	=34-	=34-
.	.	.	.
4BB-/	.	.	.
2FF/	2dd\	2D/	2ff\
!	!LO:N:acc=#	!	!
[y1GG	2bn\	2D/	2dd\
.	4cc\	2C/	2ee-X\
.	[<4cc\	.	.
=35	=35	=35	=35
!LO:N:vis=4:xstem:cue	!	!	!
2GG/]	4cc\]	1D	1dd
!	!LO:N:acc=#	!	!
.	8bn\	.	.
.	8a\	.	.
2GG/	2b\	.	.
1C	1cc	1C	1ee
=36	=36	=36	=36
*M3/2	*M3/2	*M3/2	*M3/2
00.r	00.r	0F	0ff
.	.	1C	1ee
=37-	=37-	=37-	=37-
.	.	0G	0dd
.	.	1C	1ee
=38	=38	=38	=38
0C	0cc	00.r	00.r
1GG	1b-	.	.
=39-	=39-	=39-	=39-
0D	0a	.	.
1GG	1g	.	.
=40	=40	=40	=40
00.r	00.r	0G	0dd
.	.	1D	1ff
=41-	=41-	=41-	=41-
.	.	0A	0ee
.	.	1D	1dd
=42	=42	=42	=42
0BB-	0dd	0BB-	0ff
1FF	1cc	1C	1ff
=43-	=43-	=43-	=43-
0C	0cc	0E#X	0ee
1GG	1dd	1D	1gg
=44-	=44-	=44-	=44-
1.D	1.dd	1.D	1.ff
2D/	2a\	2D/	2ff\
1BB-	1b-	1F	1dd
=45-	=45-	=45-	=45-
0F	0cc	0F	0cc
1BB-	1b-	1F	1dd
=46	=46	=46	=46
*M2/1	*M2/1	*M2/1	*M2/1
*met(c|)	*met(c|)	*met(c|)	*met(c|)
2r	2r	2r	2r
1BB-	1dd	1BB-	1ff
2FF/	2cc\	2C/	2ff\
=47-	=47-	=47-	=47-
1C	1cc	1C	1ee
2GG/	2b-\	2D/	2dd\
[2GG/	[<2dd\	[2D/	[<2gg\
=48	=48	=48	=48
2GG/]	2dd\]	2D/]	2gg\]
2GG/	2dd\	2D/	2gg\
1D	1dd	4D/	1ff
.	.	4E/	.
.	.	4F/	.
.	.	4G\	.
=49-	=49-	=49-	=49-
2AA/	2cc\	2A\	2ee\
2.FF/	2.cc\	2.AA/	2.ff\
4FF/	4cc\	4AA/	4ff\
2FF/	2cc\	2C/	2cc\
=50	=50	=50	=50
1C	1cc	1C	1ee
2GG/	2b-\	2D/	2dd\
1BB-/	1b-\	1D/	1dd\
=51-	=51-	=51-	=51-
.	.	.	.
2FF/	2cc\	2C/	2ff\
2.C/	1cc	1C	2ee\
.	.	.	[y2gg\
4BB-/	.	.	.
=52	=52	=52	=52
!	!	!	!LO:N:xstem:cue
2AA/	0.cc	1C	4gg\]
.	.	.	4ff\
4GG/	.	.	1ff
4FF/	.	.	.
0C	.	0C	.
.	.	.	4ee\
.	.	.	4dd\
=53-	=53-	=53-	=53-
.	.	.	1ee
1FFl	1ccl	1Cl	1ffl
==	==	==	==
*-	*-	*-	*-
!!!system-decoration: *
!!!RDF**kern: < = below
!!!RDF**kern: l = terminal long
!!!ENC: Filip Voros
!!!END: 2021-12-09
!!!ENC: Marta Lawrence
!!!END: 2021-12-18
!!!YEC: Copyright 2022 Narodowy Instytut Fryderyka Chopina (https://polishscores.org)
!!!YEM: License CC-BY-4.0 (https://creativecommons.org/licenses/by/4.0)
